.local/share/icons/Gruvbox-Plus-Dark/actions/symbolic/mail-mark-junk-symbolic.svg

<svg width="16" height="16" version="1.1" xmlns="http://www.w3.org/2000/svg">
  <defs>
    <style id="current-color-scheme" type="text/css">.ColorScheme-Text { color:#ebdbb2; } .ColorScheme-Highlight { color:#458588; }</style>
  </defs>
  <path class="ColorScheme-Text" d="m5.221 1-4.219 4.219v5.562l4.219 4.219h5.562l4.219-4.219v-5.562l-4.219-4.219zm1.781 3h2v3l-0.25 2h-1.469l-0.2812-2zm1 5.75c0.6904 0 1.25 0.5596 1.25 1.25s-0.5596 1.25-1.25 1.25-1.25-0.5596-1.25-1.25 0.5596-1.25 1.25-1.25z" fill="currentColor"/>
</svg>

<svg xmlns="http://www.w3.org/2000/svg" width="16" height="16" version="1.1">
 <path style="fill:#ebdbb2" d="M 5,1 1,5 V 11 L 5,15 H 11 L 15,11 V 5 L 11,1 Z M 7,4 H 9 V 7 L 8.75,9 H 7.25 L 7,7 Z M 8,9.75 C 8.69,9.75 9.25,10.31 9.25,11 9.25,11.69 8.69,12.25 8,12.25 7.31,12.25 6.75,11.69 6.75,11 6.75,10.31 7.31,9.75 8,9.75 Z"/>
</svg>
